src/icons/svg/refresh.svg

<svg width="24px" height="24px" viewBox="0 0 24 24" version="1.1" xmlns="http://www.w3.org/2000/svg"
>
    <rect id="矩形备份-2" fill="#D8D8D8" opacity="0" x="0" y="0" width="24" height="24"></rect>
    <rect id="矩形备份-6" fill="#F9F9F9" opacity="0" x="1" y="1" width="22" height="22"></rect>
    <path d="M18.3831882,7.55497824 C16.3090059,4.57809984 12.4517521,3.43070258 9.0873958,4.78980718 C5.72303955,6.14891178 3.74554915,9.65338036 4.32174101,13.2354045 C4.89793288,16.8174286 7.87470275,19.5252017 11.4956103,19.7610049 C15.1165178,19.996808 18.4194246,17.6979841 19.4554534,14.2209521 L21.7522123,14.2209521 C20.717641,18.7638836 16.6820473,21.9902739 12.0221743,22 C7.3623014,22.0096389 3.31333091,18.800047 2.25988422,14.2614542 C1.20643753,9.7228613 3.42774933,5.05830186 7.61558895,3.0149452 C11.8034285,0.971588545 16.8477349,2.09106253 19.7776886,5.71405846 L19.7776886,2.55549782 C19.7776886,2.24870485 20.0264293,2 20.3332664,2 L21.4444221,2 C21.7512593,2 22,2.24870485 22,2.55549782 L22,8.6659739 C22,9.27955986 21.5025186,9.77696956 20.8888443,9.77696956 L14.777488,9.77696956 C14.4706508,9.77696956 14.2219101,9.52826468 14.2219101,9.22147173 L14.2219101,8.11047607 C14.2219101,7.80368311 14.4706508,7.55497824 14.777488,7.55497824 L18.3831882,7.55497824 Z"
          id="路径" fill="#000000" fill-rule="nonzero"></path>
</svg>

<svg width="24" height="24" xmlns="http://www.w3.org/2000/svg"><path d="M18.383 7.555a7.779 7.779 0 0 0-14.061 5.68 7.778 7.778 0 0 0 15.133.986h2.297a10 10 0 1 1-1.974-8.507V2.555c0-.306.248-.555.555-.555h1.111c.307 0 .556.249.556.555v6.111c0 .614-.497 1.111-1.111 1.111h-6.112a.556.556 0 0 1-.555-.556v-1.11c0-.307.249-.556.555-.556h3.606z" fill="currentColor"/></svg>
